X:1165
T:Tula hem och tula vall
R:Vallåt
O:Sverige
Z:Klas Krantz, 2006
L:1/8
M:3/4
K:Gm
"Gm"d>BG2B2 | "D7"A>^F"Gm"G2z2 | D>DB2B2 | "D7"A2"Gm"G2z2 :|
w:Tu-la hem och tu-la vall, tu-la långt åt mos-sen.
w:Kål fick jag när jag kom hem, kål fick jag i på-sen.
"Gm"B>cd2B2 | "D7"c>Ac4 | "Gm"G>AB2G2 | "D7"A>^FA4 | D^FA2cB | A2"Gm"G2z2 |]
w:Mjöl-ken var båd' gul och blå, li-te ost fick jag ock-så, smö-ret smak-te jag ald-rig. 
(:musicend:)

%green% Brukar det inte vara "osten såg jag lite å"? /Erik


%green% Jo, jag håller med. "Osten såg jag lite å" ska det vara! /Hans

Denna låt har lite [[!lite information]] - varifrån kommer den och vem är den efter? Troligen finns den i [[notböcker/Svenska Låtar]]. Är inte denna låt från början en dikt av okänd författare som sedan tonsatts av Alice Tegnér?
[[!Ackord]]

(:music:)
